X: 6726
T: Chalk Sunday
R: jig
M: 6/8
K: Gmajor
|:B/A/|GAG BAG|Bcd g2 e|dBG AGE|ABA A2 B|
GAG BAG|Bcd g2 e|dBG AGE|GAG G2:|
|:e/f/|gag ged|ede gfe|dBG AGE|ABA Aef|
gag gfd|ede g2 e|dBG AGE|GAG G2:|

